X:2176
T:Gammel Torsin (menuett)
C:Trad
R:Menuett
O:Oravais, Österbotten, Finland
M: 3/4
B:[[Notböcker/Äldre dansmelodier]] från [[Platser/Finland]], [[http://www.sls.fi/faksimil.php?id=16&page=78|nr 192a]]
N: "Melodien sjungen, ordsatt av A. Slotte: 'Jungfrun träder fram'"
N: Se även 193b i samma notsaling.
Z:Nils L, 22 nov 2011
L: 1/16
K: Dm
A2>A2 A2c2 B2G2 | A2F2 FED^C D4 | d2>^c2 d2e2 f2d2 | e2d2 ^c2d2 A4 |
A2>A2 A2c2 B2G2 | A2F2 FE^CE D2E2 | F2FG A2A2 F2F2 | E2^C2 D8 ::
=C2>F2 F2E2 D4 | C2>c2 c2B2 A4 | A2>B2 c2>B2 A2A2 | G2G2 F8 |
A2>A2 A2c2 B2G2 | A2F2 FE^CE D2DE | {/G}FEFG A2A2 F2F2 | E2^C2 D8 :|
(:musicend:)
(:music:)
